src/catppuccin-frappe-flamingo-cursors/pirate_24.svg

<?xml version="1.0" encoding="UTF-8" standalone="no"?>
<svg
   id="svg5327"
   width="24"
   height="24"
   version="1.1"
   sodipodi:docname="pirate_24.svg"
   inkscape:version="1.1.2 (0a00cf5339, 2022-02-04)"
   xmlns:inkscape="http://www.inkscape.org/namespaces/inkscape"
   xmlns:sodipodi="http://sodipodi.sourceforge.net/DTD/sodipodi-0.dtd"
   xmlns="http://www.w3.org/2000/svg"
   xmlns:svg="http://www.w3.org/2000/svg">
  <sodipodi:namedview
     id="namedview13"
     pagecolor="#ffffff"
     bordercolor="#666666"
     borderopacity="1.0"
     inkscape:pageshadow="2"
     inkscape:pageopacity="0.0"
     inkscape:pagecheckerboard="0"
     showgrid="true"
     inkscape:zoom="28.12"
     inkscape:cx="8.7837838"
     inkscape:cy="10.312945"
     inkscape:window-width="1896"
     inkscape:window-height="1020"
     inkscape:window-x="9"
     inkscape:window-y="45"
     inkscape:window-maximized="1"
     inkscape:current-layer="svg5327">
    <inkscape:grid
       type="xygrid"
       id="grid1212" />
  </sodipodi:namedview>
  <defs
     id="defs5329">
    <filter
       id="filter901"
       style="color-interpolation-filters:sRGB"
       width="1.123"
       height="1.117"
       x="-0.059999999"
       y="-0.059999999">
      <feGaussianBlur
         id="feGaussianBlur903"
         stdDeviation=".537" />
    </filter>
    <filter
       id="filter895"
       style="color-interpolation-filters:sRGB"
       width="1.123"
       height="1.117"
       x="-0.059999999"
       y="-0.059999999">
      <feGaussianBlur
         id="feGaussianBlur897"
         stdDeviation=".538" />
    </filter>
    <filter
       id="filter824"
       style="color-interpolation-filters:sRGB"
       width="1.1474286"
       height="1.140727"
       x="-0.073714286"
       y="-0.070363559">
      <feGaussianBlur
         id="feGaussianBlur826"
         stdDeviation=".645" />
    </filter>
    <filter
       inkscape:collect="always"
       style="color-interpolation-filters:sRGB"
       id="filter1931"
       x="-0.025199413"
       y="-0.022235685"
       width="1.0503988"
       height="1.0444714">
      <feGaussianBlur
         inkscape:collect="always"
         stdDeviation="0.15749633"
         id="feGaussianBlur1933" />
    </filter>
  </defs>
  <path
     style="color:#000000;opacity:0.1;fill:#000000;fill-opacity:1;stroke-linecap:round;stroke-linejoin:round;-inkscape-stroke:none;filter:url(#filter1931)"
     d="m 15.150391,3.5839844 a 1.0001,1.0001 0 0 0 -0.878907,0.039063 c 0,0 -1.212885,0.8053927 -2.271484,1.9980468 C 10.941401,4.4284402 9.7285156,3.6230469 9.7285156,3.6230469 A 1.0001,1.0001 0 0 0 8.4648437,5.1191406 C 9.07337,5.8923679 9.8229556,7.2574252 9.8222656,8.4960937 9.8215677,9.7378214 9.0723632,11.110809 8.4648437,11.878906 a 1.0001,1.0001 0 0 0 1.2636719,1.5 c 0,0 1.2127644,-0.805963 2.2714844,-1.998047 1.05872,1.192084 2.271484,1.998047 2.271484,1.998047 a 1.0001,1.0001 0 0 0 1.263672,-1.5 C 14.927637,11.110809 14.178432,9.7378214 14.177734,8.4960937 14.177044,7.2574258 14.92663,5.8923678 15.535156,5.1191406 A 1.0001,1.0001 0 0 0 15.150391,3.5839844 Z M 11.689453,7.90625 a 1.0001,1.0001 0 0 0 0.621094,0 c -0.0227,0.2091533 -0.132934,0.3724422 -0.132813,0.5898437 1.25e-4,0.2212024 0.111224,0.3887273 0.134766,0.6015626 a 1.0001,1.0001 0 0 0 -0.625,0 C 11.711042,8.884821 11.822141,8.7172961 11.822266,8.4960937 11.822387,8.2786923 11.712156,8.1154033 11.689453,7.90625 Z M 5.5,13.5 a 1.0001,1.0001 0 0 0 -1,1 v 5 a 1.0001,1.0001 0 0 0 1,1 h 1 a 1.0001,1.0001 0 0 0 0.34375,-0.34375 l 0.017578,0.01758 A 1.0001,1.0001 0 0 0 7.5996094,20.5 H 8.5 A 1.0001,1.0001 0 0 0 9,20 1.0001,1.0001 0 0 0 9.5,20.5 h 1 A 1.0001,1.0001 0 0 0 11,20 a 1.0001,1.0001 0 0 0 0.5,0.5 h 1 2 A 1.0001,1.0001 0 0 0 15,20 a 1.0001,1.0001 0 0 0 0.5,0.5 h 1 2 a 1.0001,1.0001 0 0 0 1,-1 v -1 a 1.0001,1.0001 0 0 0 -1,-1 h -1 v -3 a 1.0001,1.0001 0 0 0 -1,-1 h -1 a 1.0001,1.0001 0 0 0 -1,1 v 3 h -1 v -3 a 1.0001,1.0001 0 0 0 -1,-1 h -1 A 1.0001,1.0001 0 0 0 11,14 1.0001,1.0001 0 0 0 10.5,13.5 h -1 A 1.0001,1.0001 0 0 0 9,14 1.0001,1.0001 0 0 0 8.5,13.5 H 7.6835937 A 1.0001,1.0001 0 0 0 6.9882812,13.78125 L 6.8828125,13.882813 A 1.0001,1.0001 0 0 0 6.5,13.5 Z m 3,2.9375 v 1.041016 L 8.0039062,16.9375 Z"
     id="path1893" />
  <path
     style="color:#000000;fill:#303446;stroke-linecap:round;stroke-linejoin:round;-inkscape-stroke:none;fill-opacity:1"
     d="m 14.650391,3.0839844 a 1.0001,1.0001 0 0 0 -0.878907,0.039063 c 0,0 -1.212885,0.8053927 -2.271484,1.9980468 C 10.441401,3.9284402 9.2285156,3.1230469 9.2285156,3.1230469 A 1.0001,1.0001 0 0 0 7.9648437,4.6191406 C 8.57337,5.3923679 9.3229556,6.7574252 9.3222656,7.9960937 9.3215677,9.2378214 8.5723632,10.610809 7.9648437,11.378906 a 1.0001,1.0001 0 0 0 1.2636719,1.5 c 0,0 1.2127644,-0.805963 2.2714844,-1.998047 1.05872,1.192084 2.271484,1.998047 2.271484,1.998047 a 1.0001,1.0001 0 0 0 1.263672,-1.5 C 14.427637,10.610809 13.678432,9.2378214 13.677734,7.9960937 13.677044,6.7574258 14.42663,5.3923678 15.035156,4.6191406 A 1.0001,1.0001 0 0 0 14.650391,3.0839844 Z M 11.189453,7.40625 a 1.0001,1.0001 0 0 0 0.621094,0 c -0.0227,0.2091533 -0.132934,0.3724422 -0.132813,0.5898437 1.25e-4,0.2212024 0.111224,0.3887273 0.134766,0.6015626 a 1.0001,1.0001 0 0 0 -0.625,0 C 11.211042,8.384821 11.322141,8.2172961 11.322266,7.9960937 11.322387,7.7786923 11.212156,7.6154033 11.189453,7.40625 Z M 5,13 a 1.0001,1.0001 0 0 0 -1,1 v 5 a 1.0001,1.0001 0 0 0 1,1 h 1 a 1.0001,1.0001 0 0 0 0.34375,-0.34375 l 0.017578,0.01758 A 1.0001,1.0001 0 0 0 7.0996094,20 H 8 A 1.0001,1.0001 0 0 0 8.5,19.5 1.0001,1.0001 0 0 0 9,20 h 1 A 1.0001,1.0001 0 0 0 10.5,19.5 1.0001,1.0001 0 0 0 11,20 h 1 2 A 1.0001,1.0001 0 0 0 14.5,19.5 1.0001,1.0001 0 0 0 15,20 h 1 2 a 1.0001,1.0001 0 0 0 1,-1 v -1 a 1.0001,1.0001 0 0 0 -1,-1 h -1 v -3 a 1.0001,1.0001 0 0 0 -1,-1 h -1 a 1.0001,1.0001 0 0 0 -1,1 v 3 H 13 V 14 A 1.0001,1.0001 0 0 0 12,13 H 11 A 1.0001,1.0001 0 0 0 10.5,13.5 1.0001,1.0001 0 0 0 10,13 H 9 A 1.0001,1.0001 0 0 0 8.5,13.5 1.0001,1.0001 0 0 0 8,13 H 7.1835937 A 1.0001,1.0001 0 0 0 6.4882812,13.28125 L 6.3828125,13.382813 A 1.0001,1.0001 0 0 0 6,13 Z m 3,2.9375 v 1.041016 L 7.5039062,16.4375 Z"
     id="path1833" />
  <path
     id="path1192"
     style="fill:#EEBEBE;fill-opacity:1;stroke:none;stroke-width:1.1068;stroke-linecap:round;stroke-linejoin:round;stroke-miterlimit:4;stroke-dasharray:none;stroke-opacity:1"
     d="M 8.75 4 C 9.4475964 4.8864048 10.323159 6.3929686 10.322266 7.9960938 C 10.321365 9.5992185 9.45147 11.113119 8.75 12 C 8.75 12 10.659649 10.959109 11.5 9.4121094 C 12.340349 10.959109 14.25 12 14.25 12 C 13.54853 11.113119 12.678635 9.5992185 12.677734 7.9960938 C 12.67684 6.3929687 13.552403 4.8864048 14.25 4 C 14.25 4 12.340702 5.0430953 11.5 6.5898438 C 10.659296 5.0430953 8.75 4 8.75 4 z M 5 14 L 5 19 L 6 19 L 6 17.794922 L 7.0996094 19 L 8 19 L 8 18.455078 L 6.1210938 16.410156 L 8 14.519531 L 8 14 L 7.1835938 14 L 6 15.144531 L 6 14 L 5 14 z M 9 14 L 9 15 L 10 15 L 10 14 L 9 14 z M 11 14 L 11 18 L 11 19 L 12 19 L 14 19 L 14 18 L 12 18 L 12 14 L 11 14 z M 15 14 L 15 18 L 15 19 L 16 19 L 18 19 L 18 18 L 16 18 L 16 14 L 15 14 z M 9 15.5 L 9 19 L 10 19 L 10 15.5 L 9 15.5 z " />
</svg>

<svg xmlns="http://www.w3.org/2000/svg" width="24" height="24">
    <defs>
        <filter id="a" width="1.05" height="1.044" x="-.025" y="-.022" style="color-interpolation-filters:sRGB">
            <feGaussianBlur stdDeviation=".157"/>
        </filter>
    </defs>
    <path d="M15.15 3.584a1 1 0 0 0-.879.039S13.06 4.428 12 5.621c-1.059-1.193-2.271-1.998-2.271-1.998a1 1 0 0 0-1.264 1.496c.608.773 1.358 2.138 1.357 3.377 0 1.242-.75 2.615-1.357 3.383a1 1 0 0 0 1.264 1.5S10.94 12.573 12 11.38a13.3 13.3 0 0 0 2.271 1.998 1 1 0 0 0 1.264-1.5c-.607-.768-1.357-2.141-1.357-3.383-.001-1.239.749-2.604 1.357-3.377a1 1 0 0 0-.385-1.535m-3.46 4.322a1 1 0 0 0 .62 0c-.022.21-.132.373-.132.59 0 .221.111.389.134.602a1 1 0 0 0-.624 0c.023-.213.134-.38.134-.602 0-.217-.11-.38-.133-.59M5.5 13.5a1 1 0 0 0-1 1v5a1 1 0 0 0 1 1h1a1 1 0 0 0 .344-.344l.017.018a1 1 0 0 0 .739.326h.9A1 1 0 0 0 9 20a1 1 0 0 0 .5.5h1a1 1 0 0 0 .5-.5 1 1 0 0 0 .5.5h3a1 1 0 0 0 .5-.5 1 1 0 0 0 .5.5h3a1 1 0 0 0 1-1v-1a1 1 0 0 0-1-1h-1v-3a1 1 0 0 0-1-1h-1a1 1 0 0 0-1 1v3h-1v-3a1 1 0 0 0-1-1h-1a1 1 0 0 0-.5.5 1 1 0 0 0-.5-.5h-1a1 1 0 0 0-.5.5 1 1 0 0 0-.5-.5h-.816a1 1 0 0 0-.696.281l-.105.102A1 1 0 0 0 6.5 13.5Zm3 2.938v1.04l-.496-.54Z" style="color:#000;opacity:.1;fill:#000;fill-opacity:1;stroke-linecap:round;stroke-linejoin:round;-inkscape-stroke:none;filter:url(#a)"/>
    <path d="M14.65 3.084a1 1 0 0 0-.879.039s-1.212.805-2.271 1.998c-1.059-1.193-2.271-1.998-2.271-1.998a1 1 0 0 0-1.264 1.496c.608.773 1.358 2.138 1.357 3.377 0 1.242-.75 2.615-1.357 3.383a1 1 0 0 0 1.264 1.5s1.212-.806 2.271-1.998a13.3 13.3 0 0 0 2.271 1.998 1 1 0 0 0 1.264-1.5c-.607-.768-1.357-2.141-1.357-3.383-.001-1.239.749-2.604 1.357-3.377a1 1 0 0 0-.385-1.535m-3.46 4.322a1 1 0 0 0 .62 0c-.022.21-.132.373-.132.59 0 .221.111.389.134.602a1 1 0 0 0-.624 0c.023-.213.134-.38.134-.602 0-.217-.11-.38-.133-.59M5 13a1 1 0 0 0-1 1v5a1 1 0 0 0 1 1h1a1 1 0 0 0 .344-.344l.017.018A1 1 0 0 0 7.1 20H8a1 1 0 0 0 .5-.5 1 1 0 0 0 .5.5h1a1 1 0 0 0 .5-.5 1 1 0 0 0 .5.5h3a1 1 0 0 0 .5-.5 1 1 0 0 0 .5.5h3a1 1 0 0 0 1-1v-1a1 1 0 0 0-1-1h-1v-3a1 1 0 0 0-1-1h-1a1 1 0 0 0-1 1v3h-1v-3a1 1 0 0 0-1-1h-1a1 1 0 0 0-.5.5 1 1 0 0 0-.5-.5H9a1 1 0 0 0-.5.5A1 1 0 0 0 8 13h-.816a1 1 0 0 0-.696.281l-.105.102A1 1 0 0 0 6 13Zm3 2.938v1.04l-.496-.54Z" style="color:#000;fill:#303446;stroke-linecap:round;stroke-linejoin:round;-inkscape-stroke:none;fill-opacity:1"/>
    <path d="M8.75 4c.698.886 1.573 2.393 1.572 3.996S9.452 11.113 8.75 12c0 0 1.91-1.04 2.75-2.588C12.34 10.96 14.25 12 14.25 12c-.701-.887-1.571-2.4-1.572-4.004S13.552 4.886 14.25 4c0 0-1.91 1.043-2.75 2.59C10.66 5.043 8.75 4 8.75 4M5 14v5h1v-1.205L7.1 19H8v-.545L6.121 16.41 8 14.52V14h-.816L6 15.145V14zm4 0v1h1v-1zm2 0v5h3v-1h-2v-4zm4 0v5h3v-1h-2v-4zm-6 1.5V19h1v-3.5z" style="fill:#eebebe;fill-opacity:1;stroke:none;stroke-width:1.1068;stroke-linecap:round;stroke-linejoin:round;stroke-miterlimit:4;stroke-dasharray:none;stroke-opacity:1"/>
</svg>
